X: 49
T: No_140_Lullaby_(b).krn
N: Derived from No_140_Lullaby_(b).krn
%%abc-version 2.0
%%abcx-abcm2ps-target-version 5.9.1 (29 Sep 2008)
%%abc-creator hum2abc beta
%%abcx-conversion-date 2019/03/15 08:35:44
%%humdrum-veritas 3206598231
%%humdrum-veritas-data 187473887
%%linebreak <none>
%%barnumbers 0
L: 1/4
M: 3/4
K: Eb
[M:3/4]z2G | 
B3/c/B ||  
[M:2/4]GF ||  
[M:3/4]EzE/E/ | 
G3/B/G | 
FE/ z/C | 
B,3/z/ E/ z/ ||  
[M:2/4]G3/B/ | 
GF/ z/ | 
GF | 
Ez | 
G/E/G ||  
[M:3/4]B3/c/B ||  
[M:2/4]GF/ z/ | 
E2 |]  



